packages/kaspersky-hexa-ui-icons/src/iconsSVGs/16/DribbbleColor.svg

<svg width="16" height="16" viewBox="0 0 16 16" fill="none" xmlns="http://www.w3.org/2000/svg">
<path d="M8 1C11.8693 1 15 4.13196 15 7.99707C15 11.8622 11.8693 15 8 15C4.13065 15 1 11.868 1 8.00293C1 4.13783 4.13065 1 8 1Z" fill="#E74D89"/>
<path d="M8 15C4.13906 15 1 11.8629 1 8.00293C1 4.13747 4.13906 1 8 1C11.8609 1 15 4.13708 15 7.99707C15 11.8571 11.8609 15 8 15ZM13.9008 8.95542C13.6984 8.88972 12.0523 8.40243 10.1766 8.69808C10.9586 10.8443 11.2758 12.5964 11.3359 12.9578C12.6812 12.0544 13.6383 10.6199 13.9008 8.95542ZM10.3352 13.5108C10.2477 12.9851 9.89766 11.1564 9.06094 8.97732C9.05 8.98279 9.03359 8.98827 9.02266 8.98827C5.64844 10.1654 4.43984 12.5033 4.33047 12.7223C5.34219 13.5108 6.61641 13.9816 8 13.9816C8.82578 13.9871 9.61875 13.8174 10.3352 13.5108ZM3.55938 12.0051C3.69609 11.7751 5.33672 9.05944 8.42109 8.05749C8.49766 8.03011 8.57969 8.00821 8.65625 7.98631C8.50859 7.64685 8.34453 7.30739 8.16953 6.97341C5.18359 7.86586 2.28516 7.82753 2.02266 7.82206C2.02266 7.88228 2.01719 7.94251 2.01719 8.00274C2.02266 9.54126 2.60234 10.9429 3.55938 12.0051ZM2.14844 6.78178C2.41641 6.78725 4.87734 6.7982 7.67734 6.05358C6.6875 4.29058 5.61562 2.81228 5.4625 2.59875C3.78359 3.38717 2.53672 4.93117 2.14844 6.78178ZM6.6 2.19359C6.76406 2.41259 7.85234 3.89089 8.83125 5.69222C10.9586 4.89284 11.8555 3.68831 11.9648 3.535C10.9094 2.59875 9.52031 2.02933 8 2.02933C7.51875 2.02933 7.04844 2.08956 6.6 2.19359ZM12.6266 4.22487C12.5008 4.3946 11.5 5.68127 9.29063 6.58467C9.42734 6.86938 9.56406 7.15956 9.68984 7.44975C9.73359 7.55377 9.77734 7.6578 9.82109 7.75636C11.8117 7.5045 13.7859 7.90966 13.9828 7.94799C13.9664 6.54087 13.4633 5.24325 12.6266 4.22487Z" fill="#B2215A"/>
</svg>

<svg xmlns="http://www.w3.org/2000/svg" width="16" height="16" fill="none" viewBox="0 0 16 16"><path fill="#e74d89" d="M8 1c3.8693 0 7 3.132 7 6.997C15 11.8623 11.8693 15 8 15s-7-3.132-7-6.997C1 4.1377 4.1307 1 8 1"/><path fill="#b2215a" d="M8 15c-3.861 0-7-3.1371-7-6.997C1 4.1374 4.139 1 8 1c3.8609 0 7 3.137 7 6.997C15 11.8572 11.8609 15 8 15m5.9008-6.0446c-.2024-.0657-1.8485-.553-3.7242-.2573.782 2.1462 1.0992 3.8983 1.1593 4.2597 1.3453-.9034 2.3024-2.3379 2.5649-4.0024m-3.5656 4.5554c-.0875-.5257-.4375-2.3544-1.2743-4.5335a.1.1 0 0 1-.0382.011c-3.3743 1.1771-4.5829 3.515-4.6922 3.734A5.95 5.95 0 0 0 8 13.9816a5.835 5.835 0 0 0 2.3352-.4708m-6.7758-1.5057c.1367-.23 1.7773-2.9457 4.8617-3.9476.0766-.0274.1586-.0493.2352-.0712a15.6 15.6 0 0 0-.4868-1.0129c-2.986.8925-5.8843.8541-6.1468.8487 0 .0602-.0055.1204-.0055.1806.0055 1.5386.5851 2.9402 1.5422 4.0024m-1.411-5.2233c.268.0055 2.729.0164 5.529-.7282-.9899-1.763-2.0618-3.2413-2.2149-3.4549-1.679.7885-2.9258 2.3325-3.314 4.183M6.6 2.1936c.164.219 1.2523 1.6973 2.2313 3.4986 2.1273-.7994 3.0242-2.0039 3.1335-2.1572C10.9094 2.5987 9.5203 2.0293 8 2.0293c-.4813 0-.9516.0603-1.4.1643m6.0266 2.0313c-.1258.1697-1.1266 1.4564-3.336 2.3598.1367.2847.2735.5749.3992.865.0438.104.0875.2081.1313.3067 1.9906-.2519 3.9648.1533 4.1617.1916a5.96 5.96 0 0 0-1.3562-3.7231"/></svg>
